X: 2161
T: Şehnâzbûselik Seyir
C: Erol Bingöl
O: Turkey
F: http://compmusic.upf.edu/node/140
N: sehnazbuselik--seyir--sofyan--1--erol_bingol
N: makam= sehnazbuselik
N: form= seyir
N: usul= sofyan = 4/4
M: 4/4
L: 1/16
K: C    
Q: 1/4=60
%%MIDI tuningsystem comma53
a4 ^g2a2 b2c'2 b2a2  | b3a ^g2b2 a8  | \
w:   |   | 
b2c'4b2 a4 ^g4  | a3^g f2g2 e8  | 
w:   |   | 
e2f2 e2d2 e4 f4  | e2d2 c2B2 c8  | B2c2 d2f2 e4 d4  | \
w:   |   |   | 
c3B BAA^G A8  | 
w:   | 
|


